4kyu-small.svg

<svg width="77" height="32" viewBox="0 0 77 32" fill="none" xmlns="http://www.w3.org/2000/svg">
<path d="M11.0237 2H65.9763L74 16L65.9763 30H11.0237L3 16L11.0237 2Z" fill="black" stroke="#286877" stroke-width="4"/>
<path d="M26.3125 17.1797H27.8906V18.3594H26.3125V21H24.8594V18.3594H19.6797V17.5078L24.7734 9.625H26.3125V17.1797ZM21.3203 17.1797H24.8594V11.6016L24.6875 11.9141L21.3203 17.1797ZM35.6719 17.0859L34.7656 18.0312V21H33.3203V9H34.7656V16.2578L35.5391 15.3281L38.1719 12.5469H39.9297L36.6406 16.0781L40.3125 21H38.6172L35.6719 17.0859ZM44.1875 18.8828L46.1562 12.5469H47.7031L44.3047 22.3047C43.7786 23.7109 42.9427 24.4141 41.7969 24.4141L41.5234 24.3906L40.9844 24.2891V23.1172L41.375 23.1484C41.8646 23.1484 42.2448 23.0495 42.5156 22.8516C42.7917 22.6536 43.0182 22.2917 43.1953 21.7656L43.5156 20.9062L40.5 12.5469H42.0781L44.1875 18.8828ZM54.2188 20.1641C53.6562 20.8255 52.8307 21.1562 51.7422 21.1562C50.8411 21.1562 50.1536 20.8958 49.6797 20.375C49.2109 19.849 48.974 19.0729 48.9688 18.0469V12.5469H50.4141V18.0078C50.4141 19.2891 50.9349 19.9297 51.9766 19.9297C53.0807 19.9297 53.8151 19.5182 54.1797 18.6953V12.5469H55.625V21H54.25L54.2188 20.1641Z" fill="#286877"/>
</svg>

<svg width="77" height="32" fill="none" xmlns="http://www.w3.org/2000/svg"><path d="M11.024 2h54.952L74 16l-8.024 14H11.024L3 16l8.024-14z" fill="#000" stroke="#286877" stroke-width="4"/><path d="M26.313 17.18h1.578v1.18h-1.578V21h-1.454v-2.64h-5.18v-.852l5.094-7.883h1.54v7.555zm-4.993 0h3.54v-5.578l-.172.312-3.368 5.266zm14.352-.094l-.906.945V21H33.32V9h1.446v7.258l.773-.93 2.633-2.781h1.758l-3.29 3.531L40.313 21h-1.695l-2.945-3.914zm8.516 1.797l1.968-6.336h1.547l-3.398 9.758c-.526 1.406-1.362 2.11-2.508 2.11l-.274-.024-.539-.102v-1.172l.391.031c.49 0 .87-.099 1.14-.296.277-.198.503-.56.68-1.086l.32-.86-3.015-8.36h1.578l2.11 6.337zm10.03 1.281c-.562.662-1.387.992-2.476.992-.9 0-1.588-.26-2.062-.781-.47-.526-.706-1.302-.711-2.328v-5.5h1.445v5.46c0 1.282.52 1.923 1.563 1.923 1.104 0 1.838-.412 2.203-1.235v-6.148h1.445V21H54.25l-.031-.836z" fill="#286877"/></svg>
